X: 10761
Q: "Grazioso"
M: C
L: 1/8
K: C
[|\
d2 (e>d) d2 z2 | G3 F E2 c2 | (c2 B) c d2 z2 |
e3 d e2 c2 | g2 d2 {d}c2 z2 | (cB) (cd) (ec) (BA) |
f2 a2 (ge) (dc) | (c2 B) A G2 z2 | G3 G c3 _B |
e3 d c2 B2 | A3 c f2 z2 | f3 e d2 c2 |
(gf) (ed) c3 c | B3 B Hf3 a | (af) (ge) (fd) (cB) |
c3 d c2 z2 & x4 cefg | a3 b c'2 c'2 | c'bd'f fegc | Adef edcB | c3 d c2 z2 |]




